X: 273
T: Calico Billy in the Lowground
B: canberra pickers and fiddlers
B: tunes
M:4/4
L:1/8
R: reel
Q: 1/4=100
K:A
V:1 
ce2c e2cc|{B}c2c2 (3BcB A2|cf2c f2ce|B-ccc (3BcB AA|
ce2c e2 cA|B-ccc (3BcB AB|c2B2-AFEF|1AFEC B,C A,A,:|2AFEC B,A,CB,||
A,2A,A, B,-CEF|(F[AA])[AA][AB] [A2A2][EA]-[FA]-|[FA]AF-E CCEF-|AFEC B,A,CB,|
|:A,2A,A, B,-CEF|(F[AA])[AA][AB] [A2A2] A-B-|BB-AE F2FE|1AFEC B,A,CB,:|2AFED B,A,[EA]A||
% abcbook-tune_id 63ae8f1ce12fb4f4b7b3b9b7
% abcbook-tune_composer_id 
% abcbook-link-0 https://www.youtube.com/watch?v=fIEhYKstV1Y
% abcbook-boost 0
% abcbook-difficulty 0
% abcbook-tags canberra pickers and fiddlers,old time tunes,steve ryan,© free
% abcbook-tablature 
% abcbook-transpose 
% abcbook-tuning GDAE
% abcbook-lastupdated 1675827608857
% abcbook-src-url https://tunebook.net/scrape/tunes.abc
% abcbook-soundfonts 
% abcbook-repeats 1


